images_sukapura_svg/cmd/sc_beziersymmetric.svg

<svg viewBox="0 0 16 16" xmlns="http://www.w3.org/2000/svg" xmlns:xlink="http://www.w3.org/1999/xlink"><linearGradient id="a" gradientUnits="userSpaceOnUse" x1="7.457627" x2="7.728814" y1="3.694915" y2=".440678"><stop offset="0" stop-color="#d70015"/><stop offset="1" stop-color="#ff453a"/></linearGradient><linearGradient id="b" gradientUnits="userSpaceOnUse" x1="7.711865" x2="8.084745" y1="16.110384" y2="1.195131"><stop offset="0" stop-color="#0040dd"/><stop offset="1" stop-color="#0a84ff"/></linearGradient><path d="m9 1.1699219v1.0410156a6 14 0 0 1 5 13.7890625h1a7 15 0 0 0 -6-14.8300781zm-2 .0019531a7 15 0 0 0 -6 14.828125h1a6 14 0 0 1 5-13.8027344z" fill="url(#b)"/><g fill="url(#a)"><path d="m1.5 1c-.277 0-.5.223-.5.5 0 .073368.016774.1424272.044922.2050781a1 1 0 0 1 .955078-.7050781zm.5 0a1 1 0 0 1 1 1h3v-1zm8 0v1h3a1 1 0 0 1 1-1zm4 0a1 1 0 0 1 .953125.7050781c.028437-.0629146.046875-.1313131.046875-.2050781 0-.277-.223-.5-.5-.5z"/><path d="m7 0c-.554 0-1 .446-1 1v2c0 .554.446 1 1 1h2c.554 0 1-.446 1-1v-2c0-.554-.446-1-1-1zm0 1h2v2h-2z"/><path d="m2 0c-1.108 0-2 .892-2 2s.892 2 2 2 2-.892 2-2-.892-2-2-2zm0 1a1 1 0 0 1 1 1 1 1 0 0 1 -1 1 1 1 0 0 1 -1-1 1 1 0 0 1 1-1z"/><path d="m14 0c-1.108 0-2 .892-2 2s.892 2 2 2 2-.892 2-2-.892-2-2-2zm0 1a1 1 0 0 1 1 1 1 1 0 0 1 -1 1 1 1 0 0 1 -1-1 1 1 0 0 1 1-1z"/></g></svg>

<?xml version="1.0" encoding="UTF-8" standalone="no"?>
<svg
   xmlns:dc="http://purl.org/dc/elements/1.1/"
   xmlns:cc="http://creativecommons.org/ns#"
   xmlns:rdf="http://www.w3.org/1999/02/22-rdf-syntax-ns#"
   xmlns:svg="http://www.w3.org/2000/svg"
   xmlns="http://www.w3.org/2000/svg"
   xmlns:xlink="http://www.w3.org/1999/xlink"
   xmlns:sodipodi="http://sodipodi.sourceforge.net/DTD/sodipodi-0.dtd"
   xmlns:inkscape="http://www.inkscape.org/namespaces/inkscape"
   viewBox="0 0 16 16"
   version="1.1"
   id="svg20"
   sodipodi:docname="sc_beziersymmetric.svg"
   inkscape:version="0.92.4 (unknown)">
  <metadata
     id="metadata26">
    <rdf:RDF>
      <cc:Work
         rdf:about="">
        <dc:format>image/svg+xml</dc:format>
        <dc:type
           rdf:resource="http://purl.org/dc/dcmitype/StillImage" />
        <dc:title></dc:title>
      </cc:Work>
    </rdf:RDF>
  </metadata>
  <defs
     id="defs24">
    <linearGradient
       inkscape:collect="always"
       xlink:href="#a"
       id="linearGradient1980"
       x1="7.4576273"
       y1="3.6949153"
       x2="7.7288136"
       y2="0.44067797"
       gradientUnits="userSpaceOnUse" />
  </defs>
  <sodipodi:namedview
     pagecolor="#ffffff"
     bordercolor="#666666"
     borderopacity="1"
     objecttolerance="10"
     gridtolerance="10"
     guidetolerance="10"
     inkscape:pageopacity="0"
     inkscape:pageshadow="2"
     inkscape:window-width="1366"
     inkscape:window-height="706"
     id="namedview22"
     showgrid="false"
     inkscape:zoom="14.75"
     inkscape:cx="5.6271186"
     inkscape:cy="8"
     inkscape:window-x="0"
     inkscape:window-y="0"
     inkscape:window-maximized="1"
     inkscape:current-layer="svg20" />
  <linearGradient
     id="a"
     gradientUnits="userSpaceOnUse"
     x1="103.77048"
     x2="103.698729"
     y1="308.596819"
     y2="307.699926">
    <stop
       offset="0"
       stop-color="#d70015"
       id="stop2" />
    <stop
       offset="1"
       stop-color="#ff453a"
       id="stop4" />
  </linearGradient>
  <linearGradient
     id="b"
     gradientUnits="userSpaceOnUse"
     x1="7.711865"
     x2="8.084745"
     y1="16.110384"
     y2="1.195131">
    <stop
       offset="0"
       stop-color="#0040dd"
       id="stop7" />
    <stop
       offset="1"
       stop-color="#0a84ff"
       id="stop9" />
  </linearGradient>
  <path
     d="m9 1.1699219v1.0410156a6 14 0 0 1 5 13.7890625h1a7 15 0 0 0 -6-14.8300781zm-2 .0019531a7 15 0 0 0 -6 14.828125h1a6 14 0 0 1 5-13.8027344z"
     fill="url(#b)"
     id="path12" />
  <g
     style="fill:url(#linearGradient1980);fill-opacity:1"
     id="g38">
    <path
       inkscape:connector-curvature="0"
       d="M 1.5,1 C 1.223,1 1,1.223 1,1.5 1,1.573368 1.016774,1.6424272 1.044922,1.7050781 A 1,1 0 0 1 2,1 Z M 2,1 A 1,1 0 0 1 3,2 H 6 V 1 Z m 8,0 v 1 h 3 a 1,1 0 0 1 1,-1 z m 4,0 a 1,1 0 0 1 0.953125,0.7050781 C 14.981562,1.6421635 15,1.573765 15,1.5 15,1.223 14.777,1 14.5,1 Z"
       id="path30"
       style="fill-opacity:1.0;fill:url(#linearGradient1980)" />
    <path
       inkscape:connector-curvature="0"
       d="M 7,0 C 6.446,0 6,0.446 6,1 V 3 C 6,3.554 6.446,4 7,4 H 9 C 9.554,4 10,3.554 10,3 V 1 C 10,0.446 9.554,0 9,0 Z M 7,1 H 9 V 3 H 7 Z"
       id="path32"
       style="fill-opacity:1.0;fill:url(#linearGradient1980)" />
    <path
       inkscape:connector-curvature="0"
       d="M 2,0 C 0.892,0 0,0.892 0,2 0,3.108 0.892,4 2,4 3.108,4 4,3.108 4,2 4,0.892 3.108,0 2,0 Z M 2,1 A 1,1 0 0 1 3,2 1,1 0 0 1 2,3 1,1 0 0 1 1,2 1,1 0 0 1 2,1 Z"
       id="path34"
       style="fill-opacity:1.0;fill:url(#linearGradient1980)" />
    <path
       inkscape:connector-curvature="0"
       d="m 14,0 c -1.108,0 -2,0.892 -2,2 0,1.108 0.892,2 2,2 1.108,0 2,-0.892 2,-2 0,-1.108 -0.892,-2 -2,-2 z m 0,1 a 1,1 0 0 1 1,1 1,1 0 0 1 -1,1 1,1 0 0 1 -1,-1 1,1 0 0 1 1,-1 z"
       id="path36"
       style="fill-opacity:1.0;fill:url(#linearGradient1980)" />
  </g>
</svg>
